X: 29
T:Kitchen Reel
R:Reel
M:4/4
L:1/8
K:A
ed|cAce a2e2|fgaf e2c2|cAce afec|d2B2 B2ed|
cAce a2e2|fgaf e2c2|ceae gabg|a2a2 a2:|
|:b2|c'4 c'2b2|a6c2|dcde f2d2|B6e2|
b4 b2a2|g6e2|d2e2 f2e2|c6e2|
c'4 c'2b2|a6c2|A2c2 e2a2|f6d2|
BBdd f2a2|AAcc e2a2|BABc defg|a2a2 a2:|
